X:1
T:Title
%%score 1 2 3
L:1/8
M:12/4
K:C
V:1 treble nm="Part_1"
V:2 treble-8 nm="Part_2"
V:3 treble-8 nm="Part_3"
V:1
 F16 E8 | D16 ^C8 | D8 E4 F8 E4 | C4 D8 C4 A,4 B,4 | C8 E16 | A8 A8 G4 F4 | E8 G4 F8 E4 | %7
 G8 z8 D8 | F8 _B16 | A4 G4 F4 E4 F4 D4 | C8 D4 F4 F4 E4 | D4 E4 D4 D4 C4 B,4 | D8 z8 z8 | %13
 E12 G8 c4- | c4 A8 F8 D4- | D4 F8 A8 G4 | F8 c8 B8 | A16 _B8 | A16 G8 | F12 F4 E4 D4 | F24 | z24 | %22
 F16 G8 | A16 B8 | A12 A4 G4 F4 | A8 B16 | A4 G4 F4 F4 E4 D4 | F4 E4 C4 D4 D8 | C8 D8 z8 | F16 D8 | %30
 C8 F8 c8 | A4 G4 (F8 E8) | F12 A12 | c8 B8 A8 | G24 | F24 | E24 | F24 | z24 | E16 G8 | A8 c8 B8 | %41
 A4 G8 F4 E4 D4 | F8 A8 G8 | E4 D8 C4 B,4 A,4 | C8 z8 z8 | C12 D8 E4 | F8 c8 B8 | A8 G16 | %48
 A8 z8 B8 | c8 B4 A8 F4 | D8 G4 F4 E4 D4 | C12 D8 A4- | A4 G8 A4 G4 F4 | A8 z8 z8 | _B16 A8 | %55
 G4 c4 B4 A4 G4 F4 | A12 G4 A4 F4 | =E16 E8 | F8 F8 A4 B4 | c8 A8 d8 | c4 A4 _B4 A4 F4 G4 | %61
 A4 A4 c4 c4 A4 G4 | F12 E4 F4 D4 | C8 z4 F8 G4 | A8 B8 A4 F4- | F4 G4 F4 E8 D4 | F8 A4 A4 A8 | %67
 B8 A4 F4 F4 F4 | A4 A4 c4 c4 B4 G4 | A12 G4 F4 A4 | B4 A4 G4 F4 E8- | E4 E4 F4 D4 C4 F4 | %72
 E4 D4 F8 z8 | (G8 F8) !fermata!E8 | F24 |] %75
V:2
 z24 | F16 E8 | D24 | E4 F8 E4 D8 | C8 z4 C4 D4 E4 | F8 F8 G8 | A24 | (G8 A8) _B8 | (A8 G16) | %9
 F24 | F24- | F16 E8 | D4 G4 F4 E4 F4 D4 | C24 | D24 | D24 | F16 G8 | A16 G8 | A16 _B8 | %19
 A4 c4 A4 F4 G8 | F24 | F16 G8 | A16 B8 | A16 G8 | A16 c8 | (A8 G16) | F16 G8 | F16 D8 | %28
 (E8 D8) C8 | D24 | z24 | (F8 A8) G8 | F24 | (F8 G8) A8 | _B24 | A24 | G24 | F16 F8 | A16 =B8 | %39
 c16 B8 | A16 G8 | F4 A8 B4 G8 | (F8 D8) z8 | G4 F4 E8 D8 | (C12 E8) E4 | F16 G8 | F16 G8 | %47
 A8 B16 | (A8 G16) | F24 | G24 | A24 | B24 | A24 | G16 A8 | c24 | A24 | B8 G16 | z24 | z24 | z24 | %61
 F24- | F16 G8 | A24 | A8 (G8 A8) | B4 c4 (A8 G8) | F8 A8 G8 | F8 z8 z8 | F16 z8 | F12 E4 D8 | %70
 G4 F4 E4 D4 C8 | z8 (D8 F8) | G8 A16 | (_B8 A8) !fermata!G8 | F24 |] %75
V:3
 (F8 A8) G8 | D12 A4 G4 F4 | A4 d8 d4 A8 | G4 A4 D4 G4 F8 | (G8 c8) A8 | z4 d4 c4 A4 B8 | %6
 c4 e8 d4 c8 | (d8 F8) G8 | D8 z4 d8 e4 | f4 e4 d4 c4 d4 _B4 | A8 z8 A8 | (D8 A8) G8 | %12
 A4 B4 A4 G4 A4 F4 | (G8 c8) e8 | (d8 A16) | d16 d8 | c4 f8 e4 d8 | z4 c8 B4 d8 | (D8 F8) G8 | %19
 (A8 F8) C8 | c8 z8 z8 | f12 e4 d8 | c16 d8 | (e8 c8) d8 | (D8 F8) C8 | c8 d16 | A4 c8 B8 A4 | %27
 (c8 A8) z4 A4 | G4 F4 A4 G2 F2 E8 | z4 A4 d4 c4 d4 B4 | A8 F16 | z8 F8 C8 | c4 d4 c4 f4 e4 d4 | %33
 c8 z8 c8 | z4 d8 d4 G8 | z4 c8 A4 F8 | z4 C8 C4 C8 | c4 A8 B4 c8 | F16 G8 | C16 _E8 | F16 G8 | %41
 A4 (c8 d8) B4 | (c8 d8) G8 | z4 A8 G4 F4 E4 | G8 c4 A4 B4 G4 | A16 B8 | (c12 d8) e4 | %47
 f4 e4 d12 e4 | c8 d4 f4 e4 d4 | f16 c8 | z4 _B8 B8 B4 | F8 d16 | d8 z4 d8 d4 | D8 d4 c8 B4 | %54
 d16 c8 | C16 e8- | e4 e4 f4 e4 f4 d4 | c8 C16 | F8 A4 B4 c4 d4 | c4 f8 c4 f8- | f4 e4 d12 c4 | %61
 A4 F4 A4 B4 c8 | A4 d8 c4 B8 | A4 z4 F4 F4 A4 B4 | c8 _B4 A4 F8 | z4 F8 C4 C8 | c8 f4 e4 d4 c4 | %67
 d4 B4 (c8 F8-) | F4 A8 c4 d4 c2 B2 | (A8 c8) d8 | z4 A8 B4 c4 B4 | G8 F4 B4 (A8 | %72
 G8) (3(F8 E8) F8 | (3(E8 D8) F8 C8 | c24 |] %75

